!!!Melodie: Herzliebster Jesu, was hast du verbrochen
!!!Typ: Lied
**kern	**silbe	**silbe	**silbe	**silbe	**silbe	**silbe	**silbe	**silbe	**silbe	**silbe	**silbe	**silbe	**silbe	**silbe	**silbe	**silbe	**silbe	**silbe	**silbe	**silbe	**silbe	**silbe
*clefG2	*lang:DE	*lang:DE	*lang:DE	*lang:DE	*lang:DE	*lang:DE	*lang:DE	*lang:DE	*lang:DE	*lang:DE	*lang:DE	*lang:DE	*lang:DE	*lang:DE	*lang:DE	*lang:DE	*lang:DE	*lang:DE	*lang:DE	*lang:DE	*lang:DE	*lang:DE
*k[f#,c#]	*	*	*	*	*	*	*	*	*	*	*	*	*	*	*	*	*	*	*	*	*	*
*M4/4	*	*	*	*	*	*	*	*	*	*	*	*	*	*	*	*	*	*	*	*	*	*
*met(c)	*	*	*	*	*	*	*	*	*	*	*	*	*	*	*	*	*	*	*	*	*	*
4d	Herr,	Ver#	Welch’	Gott	Es	O	Sie	Das	Lass	Das	Da	Ich	Für	Ich	Ein	Un#	So	Ja,	Lockt	Seh	Gott,	Wenn
=	=	=	=	=	=	=	=	=	=	=	=	=	=	=	=	=	=	=	=	=	=	=
4d	stär#	#eint	wun#	ist	schlägt	Herr,	ü#	Größt’	dei#	Gu#	du	soll#	wel#	will	rei#	#end#	bin	wenn	bö#	ich	ei#	end#
4e	#ke	mit	#der#	ge#	den	mein	#ber#	in	#nen	#te	dich	#te	#che	nicht	#nes	#lich	ich	ich	#se	dein	#le	#lich,
4f#	mich,	Gott,	#voll'	#recht,	Stolz	Heil,	#steigt	Gott	Geist	tun,	selbst	nicht,	du	Hass	Herz,	Glück!	denn	stets	Lust	Kreuz	nicht,	Herr,
4a	dein	ein	hoch#	ein	und	an	die	ist	mich	das	für	wenn	dein	mit	gleich	Du	schon	der	mein	den	sie	mich
=	=	=	=	=	=	=	=	=	=	=	=	=	=	=	=	=	=	=	=	=	=	=
4dd	Lei#	Mensch	#hei#	Rä#	mein	des#	mensch#	Gnad’	stets,	Bö#	mich	Lei#	Le#	glei#	dei#	lit#	se#	Tu#	Herz	Klu#	rä#	mei#
4cc#	#den	gleich	#li#	#cher	Ver#	#sen	#li#	und	mein	#se	da#	#den	#ben	#chem	#nem	#test	#lig	#gend	mit	#gen	#chend	#ne
4b	zu	uns	#ges	al#	#dienst	Blut	#chen	Lieb’	Hei#	flieh’n	#hin	die#	selbst	Hass	ed#	uns	hier	Pfad	ih#	die#	zu	Sün#
4a	be#	auf	Ge#	#les	dar#	ich	Ge#	er#	#land,	und	ge#	#ser	ge#	ver#	#len	zu	im	be#	#rem	#ser	zer#	#den
=	=	=	=	=	=	=	=	=	=	=	=	=	=	=	=	=	=	=	=	=	=	=
8La	#den#	Er#	#schäf#	Bö#	#nie#	glau#	#dan#	#wei#	leh#	mei#	#ge#	Er#	#las#	#gel#	Her#	Gu#	Glau#	#tre#	Rei#	Er#	#schmet#	krän#
8Jg	|	|	|	|	|	|	|	|	|	|	|	|	|	|	|	|	|	|	|	|	|	|
4f#	#ken,	#den,	#te!	#sen,	#der,	#be,	#ken,	#sen;	#ren,	#den,	#ben,	#den,	#sen,	#ten,	#zen,	#te,	#ben?	#te,	#ze,	#den	#tern,	#ken,
4r	%	%	%	%	%	%	%	%	%	%	%	%	%	%	%	%	%	%	%	%	%	%
4f#	mich	und	Sinn’	Gott	es	ich	al#	uns	dein	Herr,	wie	wenn	wie	wenn	dies	ich	So	im	so	ein	er#	so
=	=	=	=	=	=	=	=	=	=	=	=	=	=	=	=	=	=	=	=	=	=	=
4b	in	bis	ich	ist	stürzt	lie#	#lein	kommt	gött#	die#	könnt’	Kreuz	könnt’	man	ist	bin	wird	Glau#	schrek#	Är#	#bar#	lass
4a	das	zum	ihm	die	mich	#ge	sollt’	es	#lich'	#se	ich	mich	ich	mich	der	ver#	mir	#ben	#ke	#ger#	#me	dein
4g#	Meer	Tod	nach,	Lieb’	tief	hier	ich	zu,	Kreuz	Pflicht	noch	trifft,	sie,	schilt,	Dank	#söhnt	nichts,	kämpf’,	mich	#nis	dich,	Kreuz
4b	der	am	so	und	und	vor	da#	sie	im	lehrt	nach	ge#	sie	nicht	für	in	nichts	im	dein	und	wenn	mir
=	=	=	=	=	=	=	=	=	=	=	=	=	=	=	=	=	=	=	=	=	=	=
4dd	Lie#	Kreuz	za#	lässt	es	dir	#rum	de#	Glau#	mich	mei#	#lass'#	mei#	rä#	dei#	dei#	mei#	Glau#	Wort,	ei#	ei#	wie#
4cc#	#be	ge#	#gen	die	er#	ge#	im	#muts#	#ben	dein	#nem	#nes	#ne	#chend	#nes	#nem	#ne	#ben	das	#ne	#ner	#der
4ff#	zu	#hor#	mei#	Welt	#hebt	#bückt	Glau#	#voll	zu	hei#	Wil#	Her#	Brü#	wie#	Kreu#	teu#	Kro#	wach’	Wort	Tor#	von	Ru#
8Lee	ver#	#sam	#ne	er#	mich	im	#ben	zu	ver#	#lig'	#len	#zens	#der	#der#	#zes	#rem	#ne	und	vom	#heit	den	#he
8Jdd	|	|	|	|	|	|	|	|	|	|	|	|	|	|	|	|	|	|	|	|	|	|
=	=	=	=	=	=	=	=	=	=	=	=	=	=	=	=	=	=	=	=	=	=	=
(4cc#	#sen#	wer#	Kräf#	#lö#	wie#	Stau#	wan#	prei#	#eh#	Lei#	le#	wer#	has#	#schel#	Schmer#	Blu#	rau#	be#	Kreu#	wer#	Spöt#	schen#
4b)	|	|	|	|	|	|	|	|	|	|	|	|	|	|	|	|	|	|	|	|	|	|
2a	#ken,	#den;	#te,	#sen,	#der;	#be,	#ken?	#sen,	#ren;	#den;	#ben?	#den;	#sen?	#ten;	#zen;	#te;	#ben?	#te,	#ze;	#den,	#tern	#ken;
=	=	=	=	=	=	=	=	=	=	=	=	=	=	=	=	=	=	=	=	=	=	=
4r	%	%	%	%	%	%	%	%	%	%	%	%	%	%	%	%	%	%	%	%	%	%
4f#	die	an	mein	dies	lehrt	ver#	Ich	zu	dass	kann	Und	da	Und	du,	und	du	So	so	und	so	sich	dein
4ee	dich	uns’#	Herz	kann	mich	#lie#	bin	seh’n,	ich,	ich	nicht	du	nicht	Hei#	Gott	hast	werd’	ist	werd’	sei’s	spät	Kreuz,
4cc#	be#	#rer	er#	mein	mein	#re	ein	wie	ge#	zu#	viel#	so	wie	#li#	gibt	mein	ich	mein	ich	doch	be#	dies
=	=	=	=	=	=	=	=	=	=	=	=	=	=	=	=	=	=	=	=	=	=	=
4dd	#wog,	Statt	#bebt,	Geist,	Glück,	mich	Mensch;	hoch,	#treu	#gleich	#mehr,	viel	du,	#ger,	uns	Heil,	dort,	Heil	matt	mir,	#kehrt	sei,
4dd	von	ge#	ich	mit	macht	mit	darf	wenn	in	das	weil	für	wenn	du,	die	da	von	schon	im	trotz	und	wenn
4dd	al#	#mar#	seh’	Schrek#	mich	dan#	der	Gott	dem	Bö#	ich	uns,	sie	Herr	Kraft	du	Herr#	so	Lau#	al#	dich,	ich
4a	#ler	#tert	und	#ken	aus	#ken#	sich	uns	Be#	#se	dir	wir	mich	und	in	für	#lich#	ge#	#fe	#les	den	den
=	=	=	=	=	=	=	=	=	=	=	=	=	=	=	=	=	=	=	=	=	=	=
4ee	Schuld	und	ich	und	Got#	#dem	un#	Gnad’	#ruf	mir	an#	es	un#	Haupt	dei#	mich	#keit	#wiss	gu#	frech#	er	Tod
4dd	des	zer#	em#	Ent#	#tes	Ge#	#der#	er#	der	er#	#ge#	ver#	#ter#	der	#nem	ge#	um#	er#	#ter	#en	ge#	einst
8Ldd	Bö#	#schla#	#pfin#	#zük#	Fein#	#mü#	#win#	#zei#	Lie#	#lau#	#hö#	#schul#	#tre#	Glie#	Na#	#stor#	#ge#	#stre#	Wer#	Spot#	#schmä#	lei#
8Jcc	|	|	|	|	|	|	|	|	|	|	|	|	|	|	|	|	|	|	|	|	|	|
4b	#sen	#gen,	#de	#ken,	#de	#te	#den,	#get,	#be,	#ben	#re,	#det,	#ten,	#der,	#men,	#ben,	#ben,	#bet,	#ke,	#tes,	#het,	#de,
=	=	=	=	=	=	=	=	=	=	=	=	=	=	=	=	=	=	=	=	=	=	=
4r	%	%	%	%	%	%	%	%	%	%	%	%	%	%	%	%	%	%	%	%	%	%
4b	uns	die	den	am	zu	in	Gott	die	mich	und	zu	lieb#	für	schalt’st	dich	am	einst	als	so	die	um	mir
4dd	zu	Sün#	Fluch	Kreuz	Got#	dei#	zu	Gna#	christ#	an	dei#	#reich	sie	auch	nach#	Kreuz	e#	Je#	sei	Weis#	Gna#	Fried’
4g	er#	#de	der	er#	#tes	#ne	er#	#de	#lich	dich	#ner	er#	noch	nicht	#zu#	er#	#wig	#sus	mir’s	#heit	#de	und
=	=	=	=	=	=	=	=	=	=	=	=	=	=	=	=	=	=	=	=	=	=	=
(4f	#lö#	tra#	Sün#	#blik#	Freun#	Gü#	#grün#	stei#	ü#	glau#	Eh#	#dul#	be#	wie#	#ah#	#wor#	le#	le#	Stär#	Got#	fle#	Freu#
4e)	|	|	|	|	|	|	|	|	|	|	|	|	|	|	|	|	|	|	|	|	|	|
2d	#sen!	#gen.	#de.	#ken.	#de.	#te.	#den?	#get.	#be.	#ben?	#re?	#det?	#ten?	#der.	#men.	#ben.	#ben?	#bet.	#ke.	#tes.	#het.	#de!
==	==	==	==	==	==	==	==	==	==	==	==	==	==	==	==	==	==	==	==	==	==	==
*-	*-	*-	*-	*-	*-	*-	*-	*-	*-	*-	*-	*-	*-	*-	*-	*-	*-	*-	*-	*-	*-	*-
